brandFactory_export/1.Light/Tijeras cortar_1Light.svg

<?xml version="1.0" encoding="UTF-8"?>
<svg width="24px" height="24px" viewBox="0 0 24 24" version="1.1" xmlns="http://www.w3.org/2000/svg" xmlns:xlink="http://www.w3.org/1999/xlink">
    <title>1.Light/Tijeras cortar_1Light</title>
    <g id="Symbols" stroke="none" stroke-width="1" fill="none" fill-rule="evenodd">
        <g id="1.Light/Tijeras-cortar_1Light" fill="#5CB615" fill-rule="nonzero">
            <path d="M20.0319328,22.6386555 C22.4722689,22.6386555 23.6151261,21.5294118 23.6151261,19.1495798 C23.6151261,16.7596639 22.4756303,15.6504202 20.0319328,15.6504202 C17.5815126,15.6504202 16.4386555,16.7596639 16.4386555,19.1495798 C16.4386555,21.5294118 17.5781513,22.6386555 20.0319328,22.6386555 Z M11.9882353,12.7966387 C14.2907563,12.7966387 15.5613445,14.2521008 16.4084034,15.7579832 L17.1848739,15.0823529 L2.94621849,1.20336134 C1.62521008,2.89411765 2.81512605,4.69243697 4.1092437,5.95294118 L11.1848739,12.8470588 C11.4638655,12.8168067 11.7361345,12.7966387 11.9882353,12.7966387 Z M8.82857143,15.5596639 C9.35294118,14.692437 9.90084034,14.0537815 10.5260504,13.6033613 L9.98151261,13.0823529 L7.97478992,15.0386555 C8.29747899,15.1764706 8.57983193,15.3546218 8.82857143,15.5596639 L8.82857143,15.5596639 Z M5.60168067,22.5512605 C8.04201681,22.5512605 9.18487395,21.4386555 9.18487395,19.0588235 C9.18487395,18.0840336 8.99327731,17.3277311 8.6,16.7697479 C8.6,16.7596639 8.58991597,16.7596639 8.58991597,16.7596639 C8.55966387,16.6991597 8.51932773,16.6521008 8.4789916,16.5915966 C7.89411765,15.892437 6.94621849,15.5596639 5.60168067,15.5596639 C3.1512605,15.5596639 2.00840336,16.6722689 2.00840336,19.0588235 C2.00840336,21.4420168 3.1512605,22.5512605 5.60168067,22.5512605 L5.60168067,22.5512605 Z M22.1731092,1.20336134 L13.2722689,9.87563025 L15.1378151,11.6941176 C15.1478992,11.6840336 15.1579832,11.6638655 15.1680672,11.6537815 L21.0134454,5.94957983 C21.9411765,5.05546218 22.5159664,4.13109244 22.7008403,3.29411765 C22.8487395,2.54117647 22.6773109,1.85210084 22.1731092,1.20336134 Z M20.0319328,14.6655462 C22.9294118,14.6655462 24.6235294,16.0907563 24.6235294,19.1495798 C24.6235294,22.1983193 22.9294118,23.6235294 20.0319328,23.6235294 C17.1243697,23.6235294 15.4302521,22.1983193 15.4302521,19.1495798 C15.4302521,18.2352941 15.6016807,17.4890756 15.8840336,16.8571429 C15.8537815,16.8268908 15.8235294,16.8 15.8033613,16.7697479 C14.8756303,14.8907563 13.8840336,13.9764706 12.5226891,13.8084034 C12.512605,13.8084034 12.492437,13.8184874 12.4823529,13.8184874 C12.0352941,13.8857143 11.6521008,14.0336134 11.2789916,14.2722689 C10.6436975,14.6857143 10.0789916,15.3546218 9.53445378,16.3563025 C9.95798319,17.0453782 10.189916,17.9394958 10.189916,19.0588235 C10.189916,22.107563 8.49579832,23.5327731 5.59831933,23.5327731 C2.69411765,23.5361345 1,22.107563 1,19.0588235 C1,16.010084 2.69411765,14.5747899 5.60168067,14.5747899 C6.06554622,14.5747899 6.48907563,14.6218487 6.89243697,14.702521 L9.27563025,12.3831933 L3.39327731,6.6487395 C1.01008403,4.33277311 0.707563025,1.95966387 2.56302521,0.141176471 C2.76470588,-0.043697479 3.07731092,-0.043697479 3.2789916,0.141176471 L12.5529412,9.17983193 L21.8369748,0.141176471 C22.0352941,-0.0470588235 22.3445378,-0.0470588235 22.5428571,0.141176471 C24.4084034,1.96302521 24.1092437,4.33277311 21.7260504,6.65210084 L15.8840336,12.3462185 C15.8638655,12.3663866 15.8537815,12.3663866 15.8336134,12.3764706 L18.2739496,14.7563025 C18.3042017,14.7865546 18.3344538,14.8369748 18.3546218,14.8739496 C18.902521,14.7327731 19.4672269,14.6655462 20.0319328,14.6655462 Z M20.0285714,20.4739496 C21.0369748,20.4739496 21.3932773,20.1277311 21.3932773,19.1462185 C21.3932773,18.1747899 21.0235294,17.8151261 20.0285714,17.8151261 C19.0201681,17.8151261 18.6638655,18.1613445 18.6638655,19.1462185 C18.6638655,20.1277311 19.0201681,20.4739496 20.0285714,20.4739496 Z M20.0285714,16.8302521 C21.5277311,16.8302521 22.405042,17.5697479 22.405042,19.1428571 C22.405042,20.7193277 21.5277311,21.4554622 20.0285714,21.4554622 C18.5294118,21.4554622 17.6554526,20.7193277 17.6554526,19.1428571 C17.6521008,17.5697479 18.5294118,16.8302521 20.0285714,16.8302521 L20.0285714,16.8302521 Z M5.59831933,20.3865546 C6.60672269,20.3865546 6.96302521,20.0369748 6.96302521,19.0554622 C6.96302521,18.087395 6.59327731,17.7243697 5.59831933,17.7243697 C4.58991597,17.7243697 4.23359013,18.0705882 4.23359013,19.0554622 C4.2302521,20.0403361 4.58991597,20.3865546 5.59831933,20.3865546 Z M5.59831933,16.7428571 C7.09747899,16.7428571 7.97478992,17.4789916 7.97478992,19.0554622 C7.97478992,20.6319328 7.09747899,21.3680672 5.59831933,21.3680672 C4.09915966,21.3680672 3.22184874,20.6352941 3.22184874,19.0588235 C3.22184874,17.4823529 4.09579832,16.7428571 5.59831933,16.7428571 L5.59831933,16.7428571 Z M11.8504202,11.0218487 C12.1663866,11.0218487 12.3512605,11.1798319 12.3512605,11.512605 C12.3512605,11.8487395 12.1630252,12.0033613 11.8504202,12.0033613 C11.5344538,12.0033613 11.3495798,11.8487395 11.3495798,11.512605 C11.3495798,11.1798319 11.5344538,11.0218487 11.8504202,11.0218487 Z" id="Tijeras-cortar_1Light"></path>
        </g>
    </g>
</svg>

<svg width="24" height="24" viewBox="0 0 24 24" xmlns="http://www.w3.org/2000/svg"><path d="M20.032 22.639c2.44 0 3.583-1.11 3.583-3.49 0-2.39-1.14-3.499-3.583-3.499-2.45 0-3.593 1.11-3.593 3.5 0 2.38 1.14 3.489 3.593 3.489zm-8.044-9.842c2.303 0 3.573 1.455 4.42 2.961l.777-.676L2.946 1.203c-1.32 1.691-.13 3.49 1.163 4.75l7.076 6.894c.279-.03.551-.05.803-.05zm-3.16 2.763c.525-.868 1.073-1.506 1.698-1.957l-.544-.52-2.007 1.956c.322.137.605.316.854.52zM5.603 22.55c2.44 0 3.583-1.112 3.583-3.492 0-.975-.192-1.731-.585-2.29 0-.01-.01-.01-.01-.01-.03-.06-.07-.107-.111-.167-.585-.7-1.533-1.032-2.877-1.032-2.45 0-3.594 1.112-3.594 3.499 0 2.383 1.143 3.492 3.594 3.492zM22.173 1.203l-8.9 8.673 1.865 1.818c.01-.01.02-.03.03-.04l5.845-5.704c.928-.895 1.503-1.819 1.688-2.656.148-.753-.024-1.442-.528-2.09zm-2.141 13.463c2.897 0 4.592 1.425 4.592 4.484 0 3.048-1.695 4.474-4.592 4.474-2.908 0-4.602-1.426-4.602-4.474 0-.915.172-1.66.454-2.293-.03-.03-.06-.057-.08-.087-.928-1.88-1.92-2.794-3.281-2.962-.01 0-.03.01-.04.01-.448.068-.83.216-1.204.454-.635.414-1.2 1.083-1.745 2.084.424.69.656 1.583.656 2.703 0 3.049-1.694 4.474-4.592 4.474C2.694 23.536 1 22.108 1 19.059c0-3.049 1.694-4.484 4.602-4.484.464 0 .887.047 1.29.128l2.384-2.32L3.393 6.65C1.01 4.333.708 1.959 2.563.14a.531.531 0 01.716 0l9.274 9.039L21.837.14a.512.512 0 01.706 0c1.865 1.822 1.566 4.192-.817 6.511l-5.842 5.694c-.02.02-.03.02-.05.03l2.44 2.38c.03.03.06.081.08.118a6.725 6.725 0 011.678-.208zm-.003 5.808c1.008 0 1.364-.346 1.364-1.328 0-.971-.37-1.33-1.364-1.33-1.009 0-1.365.345-1.365 1.33 0 .982.356 1.328 1.365 1.328zm0-3.644c1.499 0 2.376.74 2.376 2.313 0 1.576-.877 2.312-2.376 2.312-1.5 0-2.374-.736-2.374-2.312-.003-1.573.874-2.313 2.374-2.313zm-14.43 3.557c1.008 0 1.364-.35 1.364-1.332 0-.968-.37-1.33-1.365-1.33-1.008 0-1.364.346-1.364 1.33-.004.985.356 1.332 1.364 1.332zm0-3.644c1.498 0 2.376.736 2.376 2.312 0 1.577-.878 2.313-2.377 2.313-1.499 0-2.376-.733-2.376-2.31 0-1.576.874-2.315 2.376-2.315zm6.251-5.721c.316 0 .501.158.501.49 0 .337-.188.491-.5.491-.317 0-.501-.154-.501-.49 0-.333.184-.491.5-.491z" fill="#5CB615" fill-rule="nonzero"/></svg>
